packages/core/src/svgs/tokens/branded/MTD.svg

<svg width="24" height="24" viewBox="0 0 24 24" fill="none" xmlns="http://www.w3.org/2000/svg">
<path d="M2 17H17V2H22V22H2V17ZM2 2H7V9.85717H2V2ZM9.14283 2H14.1428V9.85717H9.14283V2Z" fill="#FF1826"/>
</svg>

<svg xmlns="http://www.w3.org/2000/svg" width="24" height="24" fill="none" viewBox="0 0 24 24">
    <path fill="#FF1826" d="M2 17h15V2h5v20H2zM2 2h5v7.857H2zm7.143 0h5v7.857h-5z"/>
</svg>
